images_elementary_svg/cmd/tr/lc_italic.svg

<svg height="24" width="24" xmlns="http://www.w3.org/2000/svg" xmlns:xlink="http://www.w3.org/1999/xlink"><radialGradient id="a" cx="13" cy="7.158687" gradientTransform="matrix(-2.8900222 .00000025 -.00000038 -4.4461878 47.133683 34.82886)" gradientUnits="userSpaceOnUse" r="4.498236"><stop offset="0" stop-color="#737373"/><stop offset=".26238" stop-color="#636363"/><stop offset=".704952" stop-color="#4b4b4b"/><stop offset="1" stop-color="#3f3f3f"/></radialGradient><linearGradient id="b" gradientUnits="userSpaceOnUse" x1="16" x2="16" y1="44" y2="41"><stop offset="0" stop-opacity="0"/><stop offset=".5"/><stop offset="1" stop-opacity="0"/></linearGradient><radialGradient id="c" cx="40" cy="43.5" gradientTransform="matrix(1 0 0 .75 -31.462778 9.875)" gradientUnits="userSpaceOnUse" r="2" xlink:href="#d"/><linearGradient id="d"><stop offset="0"/><stop offset="1" stop-opacity="0"/></linearGradient><radialGradient id="e" cx="9" cy="43.5" gradientTransform="matrix(1 0 0 .75 -4.59375 9.875)" gradientUnits="userSpaceOnUse" r="2" xlink:href="#d"/><g transform="matrix(.60518445 0 0 1 5.333406 -21.5)"><path d="m8.537222 41v3h.5c.831 0 1.5-.669 1.5-1.5s-.669-1.5-1.5-1.5z" fill="url(#c)" opacity=".2"/><path d="m3.8125 41c-.7790625 0-1.40625.627187-1.40625 1.40625v.1875c0 .779063.6271875 1.40625 1.40625 1.40625h.59375v-3z" fill="url(#e)" opacity=".2"/><path d="m4.40625 41h4.130972v3h-4.130972z" fill="url(#b)" opacity=".2"/></g><path d="m10.008081 20.500511h-2.0466429l2.8455989-14.2061066h-4.5748476l.3502276-1.7949164h11.185394l-.350228 1.7949164h-4.563903z" fill="url(#a)" stroke="#000" stroke-opacity=".6"/><path d="m6.5820312 4.5-.3496093 1.7949219h.2929687l.0566406-.2949219h10.8925778l.292969-1.5zm3.9238278 3.2949219-2.5449215 12.7050781h.3007813l2.5449222-12.7050781z" fill="#fff" opacity=".2"/></svg>

<?xml version="1.0" encoding="UTF-8" standalone="no"?>
<svg
   xmlns:dc="http://purl.org/dc/elements/1.1/"
   xmlns:cc="http://creativecommons.org/ns#"
   xmlns:rdf="http://www.w3.org/1999/02/22-rdf-syntax-ns#"
   xmlns:svg="http://www.w3.org/2000/svg"
   xmlns="http://www.w3.org/2000/svg"
   xmlns:xlink="http://www.w3.org/1999/xlink"
   xmlns:sodipodi="http://sodipodi.sourceforge.net/DTD/sodipodi-0.dtd"
   xmlns:inkscape="http://www.inkscape.org/namespaces/inkscape"
   height="24"
   width="24"
   version="1.1"
   id="svg39"
   sodipodi:docname="lc_italic.svg"
   inkscape:version="0.92.4 (unknown)"
   inkscape:export-filename="/home/rizmut/Dokumen/Rizmut/Github/libreoffice-style-elementary/images_elementary/cmd/tr/lc_italic.png"
   inkscape:export-xdpi="96"
   inkscape:export-ydpi="96">
  <metadata
     id="metadata45">
    <rdf:RDF>
      <cc:Work
         rdf:about="">
        <dc:format>image/svg+xml</dc:format>
        <dc:type
           rdf:resource="http://purl.org/dc/dcmitype/StillImage" />
        <dc:title />
      </cc:Work>
    </rdf:RDF>
  </metadata>
  <defs
     id="defs43">
    <radialGradient
       inkscape:collect="always"
       xlink:href="#e"
       id="radialGradient901"
       cx="13"
       cy="7.1586866"
       fx="13"
       fy="7.1586866"
       r="4.4982357"
       gradientTransform="matrix(-2.8900222,2.4709558e-7,-3.8014694e-7,-4.4461878,47.133683,34.82886)"
       gradientUnits="userSpaceOnUse" />
    <linearGradient
       inkscape:collect="always"
       xlink:href="#d"
       id="linearGradient926"
       gradientUnits="userSpaceOnUse"
       x1="16"
       y1="44"
       x2="16"
       y2="41" />
  </defs>
  <sodipodi:namedview
     pagecolor="#ffffff"
     bordercolor="#666666"
     borderopacity="1"
     objecttolerance="10"
     gridtolerance="10"
     guidetolerance="10"
     inkscape:pageopacity="0"
     inkscape:pageshadow="2"
     inkscape:window-width="1366"
     inkscape:window-height="714"
     id="namedview41"
     showgrid="true"
     inkscape:zoom="19.666667"
     inkscape:cx="4.2767191"
     inkscape:cy="14.188301"
     inkscape:window-x="0"
     inkscape:window-y="28"
     inkscape:window-maximized="1"
     inkscape:current-layer="svg39">
    <inkscape:grid
       type="xygrid"
       id="grid852" />
  </sodipodi:namedview>
  <radialGradient
     id="a"
     cx="40"
     cy="43.5"
     gradientTransform="matrix(1,0,0,0.75,-31.462778,9.875)"
     gradientUnits="userSpaceOnUse"
     r="2"
     xlink:href="#b" />
  <linearGradient
     id="b">
    <stop
       offset="0"
       id="stop3" />
    <stop
       offset="1"
       stop-opacity="0"
       id="stop5" />
  </linearGradient>
  <radialGradient
     id="c"
     cx="9"
     cy="43.5"
     gradientTransform="matrix(1,0,0,0.75,-4.59375,9.875)"
     gradientUnits="userSpaceOnUse"
     r="2"
     xlink:href="#b" />
  <linearGradient
     id="d"
     gradientUnits="userSpaceOnUse"
     x1="16"
     x2="16"
     y1="44"
     y2="41">
    <stop
       offset="0"
       stop-opacity="0"
       id="stop9" />
    <stop
       offset=".5"
       id="stop11" />
    <stop
       offset="1"
       stop-opacity="0"
       id="stop13" />
  </linearGradient>
  <radialGradient
     id="e"
     cx="12.279661"
     cy="7.140932"
     gradientTransform="matrix(-3.1675784 .07135103 -.0749702 -3.3513607 51.71176 26.522026)"
     gradientUnits="userSpaceOnUse"
     r="5.015671">
    <stop
       offset="0"
       stop-color="#737373"
       id="stop16" />
    <stop
       offset=".26238"
       stop-color="#636363"
       id="stop18" />
    <stop
       offset=".704952"
       stop-color="#4b4b4b"
       id="stop20" />
    <stop
       offset="1"
       stop-color="#3f3f3f"
       id="stop22" />
  </radialGradient>
  <g
     transform="matrix(0.60518445,0,0,1,5.333406,-21.5)"
     id="g31">
    <path
       d="m 8.537222,41 v 3 h 0.5 c 0.831,0 1.5,-0.669 1.5,-1.5 0,-0.831 -0.669,-1.5 -1.5,-1.5 z"
       id="path25"
       style="opacity:0.2;fill:url(#a)"
       inkscape:connector-curvature="0" />
    <path
       d="m 3.8125,41 c -0.7790625,0 -1.40625,0.627187 -1.40625,1.40625 v 0.1875 C 2.40625,43.372813 3.0334375,44 3.8125,44 h 0.59375 v -3 z"
       id="path27"
       style="opacity:0.2;fill:url(#c)"
       inkscape:connector-curvature="0" />
    <path
       d="m 4.40625,41 h 4.130972 v 3 H 4.40625 Z"
       id="path29"
       style="opacity:0.2;fill:url(#linearGradient926)"
       inkscape:connector-curvature="0"
       sodipodi:nodetypes="ccccc" />
  </g>
  <g
     aria-label="T"
     style="font-style:normal;font-weight:normal;font-size:40px;line-height:1.25;font-family:sans-serif;letter-spacing:0px;word-spacing:0px;fill:url(#radialGradient901);fill-opacity:1;stroke:#000000;stroke-opacity:0.6"
     id="text856">
    <path
       d="M 10.008081,20.500511 H 7.9614381 L 10.807037,6.2944044 H 6.2321894 L 6.582417,4.499488 H 17.767811 L 17.417583,6.2944044 H 12.85368 Z"
       style="font-style:italic;font-variant:normal;font-weight:normal;font-stretch:normal;font-size:22.41456604px;font-family:'Droid Sans';-inkscape-font-specification:'Droid Sans';fill:url(#radialGradient901);fill-opacity:1;stroke:#000000;stroke-opacity:0.6"
       id="path835" />
  </g>
  <path
     style="font-style:normal;font-weight:normal;font-size:40px;line-height:1.25;font-family:sans-serif;letter-spacing:0px;word-spacing:0px;fill:#ffffff;fill-opacity:1;stroke:none;stroke-opacity:0.6;opacity:0.2"
     d="M 6.5820312 4.5 L 6.2324219 6.2949219 L 6.5253906 6.2949219 L 6.5820312 6 L 17.474609 6 L 17.767578 4.5 L 6.5820312 4.5 z M 10.505859 7.7949219 L 7.9609375 20.5 L 8.2617188 20.5 L 10.806641 7.7949219 L 10.505859 7.7949219 z "
     id="text986" />
</svg>
